!!!COM: Bach, Johann Sebastian
!!!CDT: 1685/3//-1750/7/28/
!!!OTL@@DE: Vater unser im Himmelreich
!!!OTL@EN: Our Father in Heaven
!!!AGN: 4-Part Chorale
!!!SCT: BH 110
!!!SCT: BWV 102
**harm	**root	**kern	**kern	**kern	**kern
!	!	!bass	!tenor	!alto	!soprno
*	*Iorgan	*Iorgan	*Iorgan	*Iorgan	*Iorgan
*M4/4	*M4/4	*M4/4	*M4/4	*M4/4	*M4/4
*met(c)	*met(c)	*met(c)	*met(c)	*met(c)	*met(c)
*MM60	*MM60	*MM60	*MM60	*MM60	*MM60
*k[b-e-]	*k[b-e-]	*k[b-e-]	*k[b-e-]	*k[b-e-]	*k[b-e-]
*g:	*g:	*g:	*g:	*g:	*g:
i	4CC	4GG	4G	4B-	4d
=1	=1	=1	=1	=1	=1
Vb	4GG	4FF#	4D	4A	4d
i	4CC	4GG	4D	4G	4B-
ivb	4FF	4E-	4G	8G	4c
.	.	.	.	8A	.
ib	8CC	8BB-	8G	8B-	8d
iiob	8DD	8C	8E-	8A	8c
=2	=2	=2	=2	=2	=2
ic	4CC	4D	4D	4G	4B-
V	4GG	4DD	8D	4F#	4A
.	.	.	8C	.	.
i;	4CC;	4GG;	4BB-;	4D;	4G;
i	4CC	4G	4G	4B-	4d
=3	=3	=3	=3	=3	=3
iiib	4EE-	8D	4F	4B-	4d
.	.	8E-	.	.	.
-VII	4BB-	4F	4F	8A	4c
.	.	.	.	8B-	.
-VIIb	4BB-	4AA	4F	4c	4f
III	4EE-	4BB-	4F	8B-	8d
.	.	.	.	8A	8c
=4	=4	=4	=4	=4	=4
VI	4AA-	4E-	4G	8G	4B-
.	.	.	.	8F#	.
ivb	4FF	4EE-	4E-	8G	4c
.	.	.	.	8A	.
V;	4GG;	4DD;	4AA;	4F#;	4d;
i	4CC	4GG	4G	4B-	8d
.	.	.	.	.	8e
=5	=5	=5	=5	=5	=5
v	4GG	4D	4Fy	4A	4f
iv7	4FF	4C	4E-	8B-	8g
.	.	.	.	8c	8a
ib	4CC	4BB-	4D	4d	4b-
ii	8DD	8C	8E	4c	4a
V7	8GG	8D	8F#	.	.
=6	=6	=6	=6	=6	=6
VI	4AA-	4E-y	4G	8B-	4g
.	.	.	.	8c	.
V	4GG	4D	4A	4d	4f#
i;	4CC;	4GG;	4B-;	4d;	4g;
IV	4FF	4C	4E	4c	4g
!!linebreak: 2
=7	=7	=7	=7	=7	=7
-VII	4BB-	4F	4F	4c	4a
viib/V	4FF#	4E	4G	4c#	4g
V	4GG	4D	4A	4d	4f
#viD7	8AA	8GG	8B-	8d	4e
V/V	8DD	8AA	8A	8c#	.
=8	=8	=8	=8	=8	=8
ib	4CC	4BB-	8A	4d	4d
.	.	.	8G	.	.
V7/V	4DD	4AA	8G	4c#	4e
.	.	.	8F#	.	.
V;	4GG;	4DD;	4F#;	4A;	4d;
IV	4FF	8C	4E	4c	4g
.	.	8BB-	.	.	.
=9	=9	=9	=9	=9	=9
-VIIb	4BB-	4AA	4F	4c	4f
#viob	4AA	4GG	4G	4B-	4e
-VII	4BB-	4FF	4C	4A	8f
.	.	.	.	.	8e-
i	4CC	8GG	4BB-	8B-	4d
.	.	8FF	.	8A	.
=10	=10	=10	=10	=10	=10
VI7	4AA-	4EE-	4BB-	4G	4d
-VII	4BB-	4FF	8F	4A	4c
.	.	.	8E-	.	.
III;	4EE-;	4BB-;	4D;	4F;	4B-;
Ib	4CC	4BB	4G	4G	4d
=11	=11	=11	=11	=11	=11
iv	4FF	4C	4G	4c	4e-
V7	4GG	4D	4F#	8B-	8d
.	.	.	.	8A	8c
VI	4AA-	8E-	8G	4G	4B-
.	.	8D	8F	.	.
iv	4FF	4C	4E-	8A	4c
.	.	.	.	8G	.
=12	=12	=12	=12	=12	=12
ic	4CC	4D	4D	8F#	4B-
.	.	.	.	8G	.
V	4GG	4DD	8D	8G	4A
.	.	.	8C	8F#	.
I;	4CC;	4GG;	4BB;	4D;	4G;
==	==	==	==	==	==
*-	*-	*-	*-	*-	*-
!!chor2scor: -l 2 -s 0.6 -o %b.pmx
!!!YEC: Copyright 1994, David Huron
!!!YEC: Changes/Additions 2001 by Craig Stuart Sapp
!!!YEN: United States of America
!!!SMA: 371 Bach Chorales, edited by Ludwig Erk, C.F. Peters
!!!PDT: 1850, 1865
!!!ONB: Harmony and Root analysis done manually
